!!!Melodie: eigene
!!!Typ: Gedicht
**kern	**silbe	**silbe	**silbe	**silbe	**silbe	**silbe	**silbe	**silbe	**silbe	**silbe	**silbe	**silbe	**silbe	**silbe
*clefG2	*lang:DE	*lang:DE	*lang:DE	*lang:DE	*lang:DE	*lang:DE	*lang:DE	*lang:DE	*lang:DE	*lang:DE	*lang:DE	*lang:DE	*lang:DE	*lang:DE
*k[b-]	*	*	*	*	*	*	*	*	*	*	*	*	*	*
*M4/4	*	*	*	*	*	*	*	*	*	*	*	*	*	*
*met(c)	*	*	*	*	*	*	*	*	*	*	*	*	*	*
2r	%	%	%	%	%	%	%	%	%	%	%	%	%	%
2f	Wie	Du	O	du	Gieß	dass	Von	O	Herr	dein	Spielt	dem	Wie	Du
2cc	schön	Sohn	mei#	bist	sehr	ich,	Gott	Herr	Gott	Sohn	un#	lieb#	bin	wirst
2a	leuch#	Da#	#ne	des	tief	o	kommt	Je#	Va#	hat	#ser'm	#sten	ich	mich
2f	#tet	#vid,	Perl’,	Her#	in	Herr,	mir	#su,	#ter,	mich	Gott	Je#	doch	auch
2cc	der	aus	du	#zens	mein	ein	ein	mein	mein	ihm	mit	#sus	so	zu
4d	Mor#	Ja#	wer#	schön#	Herz	Glied#	Freu#	trau#	star#	selbst	Sai#	nur	herz#	dei#
4d	#gen#	#kobs	#te	#ste	hi#	#maß'	#den#	#tes	#ker	ver#	#ten#	al#	#lich	#nem
2cc	#stern,	Stamm,	Kron’,	Blum’,	#nein,	bleib’	#schein,	Gut,	Held,	#traut,	#klang	#lein,	froh,	Preis,
=	=	=	=	=	=	=	=	=	=	=	=	=	=	=
4r	%	%	%	%	%	%	%	%	%	%	%	%	%	%
4cc	voll	mein	wahr	dein	o	an	wenn	dein	du	er	und	dem	dass	auf#
4dd	Gnad’	Kö#	Got#	sü#	du	dei#	du	Wort,	hast	ist	lasst	wun#	du,	#neh#
4ee	und	#nig	#tes	#ßes	mein	#nem	mit	dein	mich	mein	die	#der#	mein	#men
2ff	Wahr#	und	und	E#	Herr	aus#	dei#	Geist,	e#	Freund,	sü#	#schö#	Freund,	in
2ee	#heit	mein	Ma#	#van#	und	#er#	#nem	dein	#wig,	ich	#ßes#	#nen	bist	das
4dd	von	Bräu#	#ri#	#ge#	Gott	#wähl#	An#	Leib	vor	sei#	#ten	Bräut#	A	Pa#
4dd	dem	#ti#	#en	#li#	al#	#ten	#ge#	und	der	#ne	Ge#	#g'am	und	#ra#
2cc	Herrn,	#gam,	Sohn,	#um	#lein,	Leib	#sicht	Blut,	Welt,	Braut,	#sang	mein	O,	#deis,
=	=	=	=	=	=	=	=	=	=	=	=	=	=	=
4r	%	%	%	%	%	%	%	%	%	%	%	%	%	%
4cc	die	hast	ein	ist	die	in	mich	mich	in	d’rum	ganz	zu	der	des
2dd	sü#	mir	hoch#	lau#	Flam#	fri#	freund#	in#	dei#	mich	freu#	Eh#	An#	klopf’
4cc	#ße	mein	#ge#	#ter	#me	#schem	#lich	#ner#	#nem	auch	#den#	#ren	#fang	ich
2b-	Wur#	Herz	#bor#	Milch	dei#	Le#	tust	#lich	Sohn	nichts	#reich	und	und	in
4a	#zel	be#	#'ner	und	#ner	#bens#	an#	er#	ge#	be#	er#	Ge#	das	die
2g	Jes#	#ses#	Kö#	Ho#	Lie#	#trie#	#blik#	#quik#	#lie#	#trü#	#schal#	#fal#	En#	Hän#
2;f	#se!	#sen,	#nig!	#nig.	#be;	#be.	#ken,	#ken!	#bet;	#bet.	#len,	#len.	#de!	#de.
=:|	=	=	=	=	=	=	=	=	=	=	=	=	=	=
2cc	.	lieb#	.	Je#	.	In	.	Tröst’	.	Heil	.	Sin#	.	A#
2a	.	#lich,	.	#su,	.	dir,	.	mich	.	mir,	.	#get,	.	#men,
=	=	=	=	=	=	=	=	=	=	=	=	=	=	=
2cc	.	freund#	.	Je#	.	lass	.	freund#	.	heil	.	sprin#	.	A#
2a	.	#lich,	.	#su,	.	mir,	.	#lich,	.	mir;	.	#get,	.	#men,
=	=	=	=	=	=	=	=	=	=	=	=	=	=	=
4a	.	schön	.	Ho#	.	ohn’	.	hilf	.	him#	.	ju#	.	komm,
4a	.	und	.	#si#	.	auf#	.	mir	.	#mlisch'	.	#bi#	.	du
4g	.	herr#	.	#an#	.	#hö#	.	Ar#	.	Le#	.	#lie#	.	schö#
4g	.	#lich,	.	#na,	.	#ren	.	#men,	.	#ben	.	#ret,	.	#ne
=	=	=	=	=	=	=	=	=	=	=	=	=	=	=
4a	.	groß	.	him#	.	sich	.	aus	.	wird	.	tri#	.	Freu#
4a	.	und	.	#mlisch	.	ver#	.	Er#	.	er	.	#um#	.	#den#
4g	.	ehr#	.	Man#	.	#meh#	.	#bar#	.	ge#	.	#phie#	.	#kro#
4g	.	#lich,	.	#na,	.	#ren	.	#men,	.	#ben	.	#ret,	.	#ne,
=	=	=	=	=	=	=	=	=	=	=	=	=	=	=
4a	.	reich	.	das	.	Lieb’	.	hilf	.	mir	.	dankt	.	bleib
4a	.	von	.	wir	.	und	.	in	.	dort	.	dem	.	nicht
4g	.	Ga#	.	es#	.	Freu#	.	Gna#	.	o#	.	Her#	.	lan#
4f	.	#ben,	.	#sen,	.	#de	.	#den!	.	#ben;	.	#ren,	.	#ge,
=	=	=	=	=	=	=	=	=	=	=	=	=	=	=
2ff	.	hoch	.	dei#	.	dass	.	Auf	.	e#	.	groß	.	dei#
2cc	.	und	.	#ner	.	der	.	dein	.	#wig	.	ist	.	#ner
2dd	.	sehr	.	kann	.	Tod	.	Wort	.	soll	.	der	.	wart’
2cc	.	präch#	.	ich	.	uns	.	komm’	.	mein	.	Kö#	.	ich
4b-	.	#tig	.	nicht	.	selbst	.	ich	.	Herz	.	#nig	.	mit
4a	.	er#	.	ver#	.	nicht	.	ge#	.	ihn	.	der	.	Ver#
2g	.	#ha#	.	#ges#	.	schei#	.	#la#	.	lo#	.	Eh#	.	#lan#
1;f	.	#ben.	.	#sen!	.	#de.	.	#den.	.	#ben.	.	#ren.	.	#gen!
==	==	==	==	==	==	==	==	==	==	==	==	==	==	==
*-	*-	*-	*-	*-	*-	*-	*-	*-	*-	*-	*-	*-	*-	*-
